X:1
T: Bjällran av Hasse Jonsson
R: Polkett
Z: Anton Teljebäck 2009-09-02
O:Västerbotten
M:4/4
L:1/16
K:Am
D: Burträskar'a - För ditt inre öga
ed | c2Ac BAGB ABcd e2ed | c2Ac BAGB BAAG E2ed | c2Ac BAGB ABcd e2eg | ^fedf ecAc BAGB A4 :|
|: a2ea g^fe2 f2df ecA2 | AGAB cdeg ^fedf e4 | a2ea g^fe2 ^f2df ecA2 | AGAB cdec BAGB A4 :| 

